src/standard/shapes/stairs.svg

<svg xmlns="http://www.w3.org/2000/svg" viewBox="0 0 36 36">
  <path d="M29 30.38h-5.38V25a.62.62 0 0 0-.62-.62h-5.38V19a.62.62 0 0 0-.62-.62h-5.38V13a.62.62 0 0 0-.62-.62H5a.62.62 0 0 0 0 1.24h5.38V19a.62.62 0 0 0 .62.62h5.38V25a.62.62 0 0 0 .62.62h5.38V31a.62.62 0 0 0 .62.62h6a.62.62 0 0 0 0-1.24Zm2-8h-1.74L11.44 4.56a.59.59 0 0 0-.44-.18H9a.62.62 0 0 0 0 1.24h1.74l17.82 17.82a.59.59 0 0 0 .44.18h2a.62.62 0 0 0 0-1.24Z"/>
</svg>

<svg id="e9d15b90-23b5-43d9-a789-5e7f6556d508" data-name="Icon" xmlns="http://www.w3.org/2000/svg" viewBox="0 0 36 36">
  <g>
    <path d="M29,30.38H23.62V25a.62.62,0,0,0-.62-.62H17.62V19a.62.62,0,0,0-.62-.62H11.62V13a.62.62,0,0,0-.62-.62H5a.62.62,0,0,0,0,1.24h5.38V19a.62.62,0,0,0,.62.62h5.38V25a.62.62,0,0,0,.62.62h5.38V31a.62.62,0,0,0,.62.62h6A.62.62,0,0,0,29,30.38Z"/>
    <path d="M31,22.38H29.26L11.44,4.56A.59.59,0,0,0,11,4.38H9A.62.62,0,0,0,9,5.62h1.74L28.56,23.44a.59.59,0,0,0,.44.18h2A.62.62,0,0,0,31,22.38Z"/>
  </g>
</svg>
